icon-themes/breeze_svg/cmd/sc_strongemphasischarstyle.svg

<svg viewBox="0 0 16 16" xmlns="http://www.w3.org/2000/svg"><path d="m8.2988281 2c-1.298356 0-2.3179207.2959004-3.0566406.8867188-.7331235.5908183-1.0996094 1.4029454-1.0996094 2.4355468 0 .5482368.1120831 1.0256999.3359375 1.4355469.2238546.4098469.5234813.7694091.8984375 1.078125.3749564.3087159.9375875.6314675 1.6875.9667969.8002799.3619427 1.3285049.6260122 1.5859375.7910156.263029.1650033.4613905.3366069.5957032.517578.1343128.175649.2011718.378547.2011718.607422 0 .409847-.1531375.718197-.4609375.925781-.3022035.207586-.7377647.3125-1.3085937.3125-.4756908 0-1.0016997-.073083-1.578125-.216797-.570829-.143712-1.2713477-.390889-2.0996094-.742187v2.298828c1.0073453.468397 2.1650605.703125 3.4746094.703125 1.421476 0 2.5295356-.30337 3.3242186-.910156.80028-.606786 1.201172-1.436342 1.201172-2.490235 0-.7611439-.213349-1.4041575-.638672-1.9257809-.425324-.5269461-1.210168-1.0506423-2.3574218-1.5722656-.8674362-.393879-1.4192496-.6654179-1.6542968-.8144531-.2294509-.154358-.3975753-.3110225-.5039063-.4707032-.1063308-.1650033-.1601562-.3559885-.1601562-.5742187 0-.3512974.1315022-.6372385.3945312-.8554687.2630291-.2182302.6422858-.3261719 1.1347657-.3261719.4141308 0 .8324889.0492595 1.2578124.1503906.4309197.101131.9741318.2796673 1.6289058.5351563l.839844-1.9238282c-.632388-.2608117-1.240243-.4637093-1.822265-.6074218-.5764254-.1437126-1.1823275-.2148438-1.8203129-.2148438z" fill="#4d4d4d"/></svg>

<svg xmlns="http://www.w3.org/2000/svg" viewBox="0 0 16 16">
 <path 
     style="fill:#4d4d4d" 
     d="M 8.2988281 2 C 7.0004721 2 5.9809074 2.2959004 5.2421875 2.8867188 C 4.509064 3.4775371 4.1425781 4.2896642 4.1425781 5.3222656 C 4.1425781 5.8705024 4.2546612 6.3479655 4.4785156 6.7578125 C 4.7023702 7.1676594 5.0019969 7.5272216 5.3769531 7.8359375 C 5.7519095 8.1446534 6.3145406 8.467405 7.0644531 8.8027344 C 7.864733 9.1646771 8.392958 9.4287466 8.6503906 9.59375 C 8.9134196 9.7587533 9.1117811 9.9303569 9.2460938 10.111328 C 9.3804066 10.286977 9.4472656 10.489875 9.4472656 10.71875 C 9.4472656 11.128597 9.2941281 11.436947 8.9863281 11.644531 C 8.6841246 11.852117 8.2485634 11.957031 7.6777344 11.957031 C 7.2020436 11.957031 6.6760347 11.883948 6.0996094 11.740234 C 5.5287804 11.596522 4.8282617 11.349345 4 10.998047 L 4 13.296875 C 5.0073453 13.765272 6.1650605 14 7.4746094 14 C 8.8960854 14 10.004145 13.69663 10.798828 13.089844 C 11.599108 12.483058 12 11.653502 12 10.599609 C 12 9.8384651 11.786651 9.1954515 11.361328 8.6738281 C 10.936004 8.146882 10.15116 7.6231858 9.0039062 7.1015625 C 8.13647 6.7076835 7.5846566 6.4361446 7.3496094 6.2871094 C 7.1201585 6.1327514 6.9520341 5.9760869 6.8457031 5.8164062 C 6.7393723 5.6514029 6.6855469 5.4604177 6.6855469 5.2421875 C 6.6855469 4.8908901 6.8170491 4.604949 7.0800781 4.3867188 C 7.3431072 4.1684886 7.7223639 4.0605469 8.2148438 4.0605469 C 8.6289746 4.0605469 9.0473327 4.1098064 9.4726562 4.2109375 C 9.9035759 4.3120685 10.446788 4.4906048 11.101562 4.7460938 L 11.941406 2.8222656 C 11.309018 2.5614539 10.701163 2.3585563 10.119141 2.2148438 C 9.5427156 2.0711312 8.9368135 2 8.2988281 2 z "
     />
 </svg>
